src/images/single-assets/FIS.svg

<svg width="78" height="78" viewBox="0 0 78 78" fill="none" xmlns="http://www.w3.org/2000/svg">
<g clip-path="url(#clip0_627_23613)">
<path fill-rule="evenodd" clip-rule="evenodd" d="M38.9999 1C59.9867 1 77 18.0132 77 38.9999C77 59.9867 59.9867 77 38.9999 77C18.0132 77 1 59.9867 1 38.9999C1 18.0132 18.0132 1 38.9999 1Z" fill="#222C3B" stroke="#00F3AB" stroke-opacity="0.2"/>
<path fill-rule="evenodd" clip-rule="evenodd" d="M41.4037 49.7813C43.1305 49.8796 44.7839 50.0857 46.3638 50.3997L47.6592 54.4244L47.734 50.703L48.3333 50.8571C49.8984 51.4321 51.4635 51.7901 53.0285 51.9312L51.3536 60H44.634L41.4037 49.7813ZM35.9395 49.8242L32.882 60H26.3951L24.7952 51.9895C26.5764 51.9233 28.2002 51.5459 29.6667 50.8571C29.9008 50.7946 30.1366 50.7346 30.3742 50.6772L30.5839 54.4244L31.6979 50.3875C33.0576 50.12 34.4714 49.9322 35.9395 49.8242ZM23.9574 18L30.0333 46.0772C29.91 46.145 29.7878 46.2145 29.6667 46.2857C27.9186 47.0476 26.1037 47.4286 24.2222 47.4286C24.1093 47.4286 23.9958 47.4272 23.8815 47.4245L18 18H23.9574ZM53.1489 18L60 18.3281L53.9668 47.4156C52.2959 47.3431 50.4181 46.9665 48.3333 46.2857C48.2904 46.2605 48.2474 46.2355 48.2042 46.2107L53.1489 18ZM40.5906 32.2504L44.547 44.6993C43.033 44.2817 41.3917 44.0512 39.6232 44.0076L38.6125 40.3253L37.6278 44.0377C36.0913 44.1236 34.655 44.3567 33.3188 44.7369L37.0126 32.2504H40.5906Z" fill="url(#paint0_linear_627_23613)"/>
</g>
<defs>
<linearGradient id="paint0_linear_627_23613" x1="21.5" y1="18" x2="29.5" y2="58" gradientUnits="userSpaceOnUse">
<stop stop-color="#85E0A3"/>
<stop offset="1" stop-color="#80CAFF"/>
</linearGradient>
<clipPath id="clip0_627_23613">
<rect width="78" height="78" fill="white"/>
</clipPath>
</defs>
</svg>

<svg xmlns="http://www.w3.org/2000/svg" width="78" height="78" fill="none"><g fill-rule="evenodd" clip-path="url(#a)" clip-rule="evenodd"><path fill="#222C3B" stroke="#00F3AB" stroke-opacity=".2" d="M39 1c20.987 0 38 17.013 38 38S59.987 77 39 77 1 59.987 1 39 18.013 1 39 1Z"/><path fill="url(#b)" d="M41.404 49.781q2.59.148 4.96.619l1.295 4.024.075-3.721.6.154q2.347.863 4.694 1.074L51.355 60h-6.72zm-5.465.043L32.883 60h-6.487l-1.6-8.01q2.672-.1 4.872-1.133a31 31 0 0 1 .707-.18l.21 3.747 1.114-4.036a35 35 0 0 1 4.242-.564M23.958 18l6.076 28.077q-.184.102-.366.209a13.5 13.5 0 0 1-5.786 1.139L18 18zm29.192 0 6.851.328-6.033 29.088q-2.506-.11-5.634-1.13l-.129-.075zM40.59 32.25l3.956 12.45q-2.27-.627-4.924-.692l-1.01-3.683-.985 3.713a19.7 19.7 0 0 0-4.31.699l3.695-12.487z"/></g><defs><linearGradient id="b" x1="21.5" x2="29.5" y1="18" y2="58" gradientUnits="userSpaceOnUse"><stop stop-color="#85E0A3"/><stop offset="1" stop-color="#80CAFF"/></linearGradient><clipPath id="a"><path fill="#fff" d="M0 0h78v78H0z"/></clipPath></defs></svg>
